!!!!SEGMENT: pl-sa--403-a-viii--001_ziegler--symphonia-ex-c-allegro-molto.krn
!!!cenid: 17xx:669
!!!COM: Ziegler
!!!COM-rismID: pe30003658
!!!CDT:
!!!CNT:
!!!OPR: Symphonia ex C
!!!OTL: Allegro molto
!!!OMV: 001
!!!PDT:
!!!AGN: Secular
!!!SMS-siglum: PL-SA
!!!SMS-shelfmark: 403/A VIII
!!!SMS-shelfwork: 001-001 M
!!!SMS-variant:
!!!SMS-altvar:
!!!NIFC-rismSourceID: 1001035021
!!!NIFC-islandoraID:
!!!URL-pdf-islandora:
!!!URL-scan: https://bc.bdsandomierz.pl/dlibra/publication/1706/edition/1674/content @EN{Scan in the Sandomierz Diocese Digital Library} @PL{Skany w portalu Cyfrowa Biblioteka Diecezjalna w Sandomierzu}
!!!ONB-nifc: UWAGA: części Symphonii: Allegro molto, Andante, Presto
!!!AIN: 1 empty 1 viola 2 violn
!!!key:
**kern	**dynam	**kern	**kern	**dynam	**kern	**dynam
*part4	*part4	*part3	*part2	*part2	*part1	*part1
*staff4	*	*staff3	*staff2	*	*staff1	*
*Iempty	*	*Iviola	*Ivioln	*	*Ivioln	*
*I"Baſso.	*	*I"alto Viola.	*I"Violino Secundo.	*	*I"Violino Primo	*
*I'cb	*	*I'vla	*I'vl II	*	*I'vl I	*
*clefF4	*	*clefC3	*clefG2	*	*clefG2	*
*k[]	*	*k[]	*k[]	*	*k[]	*
*C:	*	*C:	*C:	*	*C:	*
*M2/4	*	*M2/4	*M2/4	*	*M2/4	*
=1	=1	=1	=1	=1	=1	=1
*	*	*tremolo	*	*	*	*
*tremolo	*	*	*	*	*	*
!LO:TX:a:t=P:all\right:problem	!	!LO:TX:a:t=P:all\right:problem	!LO:TX:a:t=P:all\right:problem	!	!LO:TX:a:t=P:all\right:problem	!
!LO:TX:a:t=allo molto	!	!LO:TX:a:t=molto	!LO:TX:a:t=molto	!	!LO:TX:a:t=molto	!
16c\LL	.	16cc\LL	8.cc\L	.	8.cc\L	.
16c\	.	16cc\JJ	.	.	.	.
16c\	.	16g\LL	.	.	.	.
16c\JJ	.	16g\	32ee\LL	.	32ee\LL	.
.	.	.	32ff\JJJ	.	32ff\JJJ	.
16B\LL	.	16g\	8.gg\L	.	8.gg\L	.
16B\	.	16g\JJ	.	.	.	.
16B\	.	16b\LL	.	.	.	.
16B\JJ	.	16b\JJ	32aa\LL	.	32aa\LL	.
.	.	.	32bb\JJJ	.	32bb\JJJ	.
=2	=2	=2	=2	=2	=2	=2
*2\right	*	*	*	*	*	*
16A\LL	.	16a\LL	8ccc\L	.	8ccc\L	.
16A\	.	16a\	.	.	.	.
16A\	.	16a\	8cc\J	.	8cc\J	.
16A\	.	16a\JJ	.	.	.	.
16A\	.	16a\LL	8r	.	8r	.
16A\	.	16a\	.	.	.	.
16A\	.	16a\	8cc\	.	8cc\	.
16A\JJ	.	16a\JJ	.	.	.	.
*	*	*Xtremolo	*	*	*	*
=3	=3	=3	=3	=3	=3	=3
16G\LL	.	16g\LL	16b/LL	.	16b/LL	.
16G\	.	16g\	16b/	.	16b/	.
16G\	.	16f\	16a/	.	16a/	.
16G\JJ	.	16f\JJ	16a/JJ	.	16a/JJ	.
*Xtremolo	*	*	*	*	*	*
16E\LL	.	16e\LL	16g/LL	.	16g/LL	.
16E\	.	16e\	16g/	.	16g/	.
16D\	.	16d\	16f/	.	16f/	.
16D\JJ	.	16d\JJ	16f/JJ	.	16f/JJ	.
=4	=4	=4	=4	=4	=4	=4
!	!	!	!LO:TX:a:t=P:problem=brak taktu	!	!	!
16C/LL	.	16c/LL	2ryy	.	16e/LL	.
16C/	.	16c/	.	.	16e/	.
16GG/	.	16B 16G/	.	.	16d/	.
16GG/JJ	.	16BJJ 16G/	.	.	16d/JJ	.
4C/	.	4c/	.	.	4c/	.
=5	=5	=5	=5	=5	=5	=5
*tremolo	*	*tremolo	*	*	*	*
16C/LL	.	16c/LL	8.c/L	.	8.c/L	.
16C/	.	16c/	.	.	.	.
16C/	.	16c/	.	.	.	.
16C/JJ	.	16c/JJ	32e/LL	.	32e/LL	.
.	.	.	32f/JJJ	.	32f/JJJ	.
16BB/LL	.	16B/LL	8.g/L	.	8.g/L	.
16BB/	.	16B/	.	.	.	.
16BB/	.	16B/	.	.	.	.
16BB/JJ	.	16B/JJ	32a/LL	.	32a/LL	.
.	.	.	32b/JJJ	.	32b/JJJ	.
=6	=6	=6	=6	=6	=6	=6
!	!	!	!LO:TX:a:t=P:problem=mixed beam	!	!LO:TX:a:t=P:problem=mixed beam	!
16AA/LL	.	16A/LL	8cc\L	.	8cc\L	.
16AA/	.	16A/	.	.	.	.
16AA/	.	16A/	8c/J	.	8c/J	.
16AA/	.	16A/	.	.	.	.
16AA/	.	16A/	8r	.	8r	.
16AA/	.	16A/	.	.	.	.
16AA/	.	16A/	8c/	.	8c/	.
16AA/JJ	.	16A/JJ	.	.	.	.
*Xtremolo	*	*Xtremolo	*	*	*	*
=7	=7	=7	=7	=7	=7	=7
*	*	*	*	*	*Xtuplet	*
!	!	!	!LO:TUP:a:problem=klamra łukowa	!	!	!
16GG/LL	.	16G/LL	24B/LL	.	24B/LL	.
.	.	.	24A/	.	24A/	.
16GG/	.	16G/	.	.	.	.
.	.	.	24B/JJ	.	24B/JJ	.
!	!	!	!LO:TUP:a:problem=klamra łukowa	!	!	!
16FF/	.	16F/	24A/LL	.	24A/LL	.
.	.	.	24B/	.	24B/	.
16FF/JJ	.	16F/JJ	.	.	.	.
.	.	.	24A/JJ	.	24A/JJ	.
!LO:TX:a:t=P:problem=mixed beam	!	!LO:TX:a:t=P:problem=mixed beam	!LO:TUP:a:problem=klamra łukowa	!	!	!
16EE/LL	.	16E/LL	24G/LL	.	24G/LL	.
.	.	.	24A/	.	24A/	.
16EE/	.	16E/	.	.	.	.
.	.	.	24G/JJ	.	24G/JJ	.
!	!	!	!	!	!LO:LB:g=original	!
!	!	!	!LO:TUP:b:problem=klamra łukowa	!	!	!
16D\	.	16d\	24f/LL	.	24f/LL	.
.	.	.	24g/	.	24g/	.
16D\JJ	.	16d\JJ	.	.	.	.
.	.	.	24f/JJ	.	24f/JJ	.
!	!	!	!LO:LB:g=original	!	!	!
=8	=8	=8	=8	=8	=8	=8
*	*	*	*Xtuplet	*	*	*
16C/LL	.	16c/LL	24e/LL	.	24e/LL	.
.	.	.	24f/	.	24f/	.
16C/	.	16c/	.	.	.	.
.	.	.	24e/JJ	.	24e/JJ	.
16FF/	.	16G/	24d/LL	.	24d/LL	.
.	.	.	24e/	.	24e/	.
16FF/JJ	.	16G/JJ	.	.	.	.
.	.	.	24d/JJ	.	24d/JJ	.
16C/LL	.	4c/	4c/	.	4c/	.
16C/	.	.	.	.	.	.
16FF/	.	.	.	.	.	.
16FF/JJ	.	.	.	.	.	.
=9	=9	=9	=9	=9	=9	=9
*tremolo	*	*tremolo	*	*	*	*
*	*	*2\right	*	*	*	*
16C/LL	.	16e\LL	16cc\LL	.	16cc\LL	.
16C/	.	16e\	16cc\	.	16cc\	.
16C/	.	16e\	16ccc\	.	16ccc\	.
16C/	.	16e\	16ccc\JJ	.	16ccc\JJ	.
16C/	.	16e\	16gg\LL	.	16gg\LL	.
16C/	.	16e\	16gg\	.	16gg\	.
16C/	.	16e\	16ee\	.	16ee\	.
16C/JJ	.	16e\JJ	16ee\JJ	.	16ee\JJ	.
=10	=10	=10	=10	=10	=10	=10
16C/LL	.	16e\LL	16cc/LL	.	16cc/LL	.
16C/	.	16e\	16cc/	.	16cc/	.
16C/	.	16e\	16g/	.	16g/	.
16C/	.	16e\	16g/JJ	.	16g/JJ	.
16C/	.	16e\	16e/LL	.	16e/LL	.
16C/	.	16e\	16e/	.	16e/	.
16C/	.	16e\	16c/	.	16c/	.
16C/JJ	.	16e\JJ	16c/JJ	.	16c/JJ	.
!LO:LB:g=original	!	!	!	!	!	!
=11	=11	=11	=11	=11	=11	=11
!	!	!	!LO:TX:a:t=P:problem=mixed beam	!	!LO:TX:a:t=P:problem=mixed beam	!
16GG/LL	.	16B/LL	16G/LL	.	16G/LL	.
16GG/	.	16B/	16G/	.	16G/	.
16GG/	.	16B/	16gg\	.	16gg\	.
16GG/	.	16B/	16gg\JJ	.	16gg\JJ	.
16GG/	.	16B/	16dd\LL	.	16dd\LL	.
16GG/	.	16B/	16dd\	.	16dd\	.
16GG/	.	16B/	16b\	.	16b\	.
16GG/JJ	.	16B/JJ	16b\JJ	.	16b\JJ	.
=12	=12	=12	=12	=12	=12	=12
16GG/LL	.	16B/LL	16g/LL	.	16g/LL	.
16GG/	.	16B/	16g/	.	16g/	.
16GG/	.	16B/	16d/	.	16d/	.
16GG/	.	16B/	16d/JJ	.	16d/JJ	.
16GG/	.	16B/	16B/LL	.	16B/LL	.
16GG/	.	16B/	16B/	.	16B/	.
16GG/	.	16B/	16G/	.	16G/	.
16GG/JJ	.	16B/JJ	16G/JJ	.	16G/JJ	.
!	!	!LO:LB:g=original	!	!	!LO:LB:g=original	!
=13	=13	=13	=13	=13	=13	=13
16C/LL	.	16e\LL	16cc\LL	.	16cc\LL	.
16C/	.	16e\	16cc\	.	16cc\	.
16C/	.	16e\	16ee\	.	16ee\	.
16C/	.	16e\	16ee\JJ	.	16ee\JJ	.
16C/	.	16e\	16a\LL	.	16a\LL	.
16C/	.	16e\	16a\	.	16a\	.
16C/	.	16e\	16cc\	.	16cc\	.
16C/JJ	.	16e\JJ	16cc\JJ	.	16cc\JJ	.
!	!	!	!LO:LB:g=original	!	!	!
=14	=14	=14	=14	=14	=14	=14
16D/LL	.	16e\LL	16f#X/LL	.	16f/LL	.
16D/	.	16e\	16f#/JJ	.	16f#X/JJ	.
16D/	.	16e\	32a/LLL	.	32a/LLL	.
.	.	.	32g/	.	32g/	.
16D/	.	16e\	32f#X/	.	32f#/	.
.	.	.	32e/JJJ	.	32e/JJJ	.
!	!	!	!	!	!LO:TX:a:t=P:problem=przekreślona kreska taktowa	!
16D/	.	16e\	4d/	.	4d/	.
16D/	.	16e\	.	.	.	.
16D/	.	16e\	.	.	.	.
16D/JJ	.	16e\JJ	.	.	.	.
*Xtremolo	*	*	*	*	*	*
=15	=15	=15	=15	=15	=15	=15
!LO:TX:a:t=P:problem=brak taktu	!	!	!LO:TX:a:t=P:problem=brak taktów 15-17	!	!	!
2ryy	.	16f#X\LL	2ryy	.	16r	.
!	!	!	!	!	!LO:TX:a:t=P:problem=mixed beam	!
.	.	16f#X\	.	.	16dd\LL	.
.	.	16f#X\	.	.	16f#X/	.
.	.	16f#X\	.	.	16g/JJ	.
.	.	16f#X\	.	.	16a/LL	.
.	.	16f#X\	.	.	16g/	.
.	.	16f#X\	.	.	16f#/	.
.	.	16f#X\JJ	.	.	16g/JJ	.
*	*	*Xtremolo	*	*	*	*
=16	=16	=16	=16	=16	=16	=16
!	!	!	!	!	!LO:TX:a:t=P:problem=takt zapisany repetycją	!
4BB/	.	4d\	2ryy	.	16ryy	.
!	!	!	!	!	!LO:TX:a:t=P:problem=mixed beam	!
.	.	.	.	.	16dd\LLyy	.
.	.	.	.	.	16f#X/yy	.
.	.	.	.	.	16g/JJyy	.
8r	.	8r	.	.	16a/LLyy	.
.	.	.	.	.	16g/yy	.
8BB/	.	8d\	.	.	16f#/yy	.
.	.	.	.	.	16g/JJyy	.
=17	=17	=17	=17	=17	=17	=17
4C/	.	4e\	2ryy	.	16r	.
!	!	!	!	!	!LO:TX:a:t=P:problem=mixed beam	!
.	.	.	.	.	16ff#X\LL	.
.	.	.	.	.	16f#X/	.
.	.	.	.	.	16g/JJ	.
8r	.	8r	.	.	16a/LL	.
.	.	.	.	.	16g/	.
8C/	.	8e\	.	.	16f#/	.
.	.	.	.	.	16g/JJ	.
=18	=18	=18	=18	=18	=18	=18
!	!	!	!LO:TX:a:t=P:problem=mixed beam	!	!	!
4D/	.	4f\	16g/KL	.	16r	.
!	!	!	!	!	!LO:TX:a:t=P:problem=mixed beam	!
.	.	.	8gg\	.	16gg\LL	.
.	.	.	.	.	16g/	.
.	.	.	8gg\	.	16a/JJ	.
8r	.	8r	.	.	16a/LL	.
.	.	.	8gg\	.	16g/	.
8D/	.	8f\	.	.	16f/	.
.	.	.	16gg\Jk	.	16g/JJ	.
!	!	!	!	!	!LO:LB:g=original	!
=19	=19	=19	=19	=19	=19	=19
!	!	!	!	!	!LO:TX:a:t=P:problem=mixed beam	!
4E/	.	4g\	16gg\KL	.	16g/LL	.
.	.	.	8gg\	.	16gg\J	.
.	.	.	.	.	8gg\J	.
.	.	.	8gg\	.	.	.
4r	.	4r	.	.	16r	.
.	.	.	8gg\	.	16gg\KL	.
.	.	.	.	.	8gg\J	.
.	.	.	16gg\Jk	.	.	.
=20	=20	=20	=20	=20	=20	=20
*	*	*	*tremolo	*	*	*
!LO:TX:a:t=10	!	!	!	!	!	!
!LO:N:vis=00	!	!	!	!	!	!
0r	.	16B/LL	16d/LL	.	16r	.
.	.	16c/	16d/	.	16gg\KL	.
.	.	16c/	16d/	.	8gg\J	.
.	.	16c/JJ	16d/JJ	.	.	.
*	*	*tremolo	*	*	*	*
.	.	16B/LL	16e/LL	.	16r	.
.	.	16B/	16e/	.	16gg\KL	.
.	.	16B/	16e/	.	8gg\J	.
.	.	16B/JJ	16e/JJ	.	.	.
=21	=21	=21	=21	=21	=21	=21
!	!	!	!	!	!LO:TX:a:t=P:problem=brak taktu	!
.	.	16d\LL	16f#X/LL	.	2ryy	.
.	.	16d\	16f#X/	.	.	.
.	.	16d\	16f#X/	.	.	.
.	.	16d\JJ	16f#X/JJ	.	.	.
.	.	16e\LL	16g/LL	.	.	.
.	.	16e\	16g/	.	.	.
.	.	16e\	16g/	.	.	.
.	.	16e\JJ	16g/JJ	.	.	.
=22	=22	=22	=22	=22	=22	=22
!	!	!	!	!	!LO:N:vis=8	!
.	.	16e\LL	16g/LL	.	8.gg\L	.
.	.	16e\	16g/	.	.	.
.	.	16e\	16g/	.	.	.
.	.	16e\	16g/JJ	.	32ff#X\LL	.
.	.	.	.	.	32ee\JJJ	.
.	.	16e\	16g/LL	.	8dd\L	.
.	.	16e\	16g/	.	.	.
.	.	16e\	16g/	.	8cc#X\J	.
.	.	16e\JJ	16g/JJ	.	.	.
*	*	*Xtremolo	*Xtremolo	*	*	*
=23	=23	=23	=23	=23	=23	=23
!	!	!LO:SIC:s=f#:v	!	!	!	!
.	.	8f\L	8f#X/L	.	8.dd\L	.
.	.	8d\	8d/	.	.	.
.	.	.	.	.	32cc\LL	.
.	.	.	.	.	32b\JJJ	.
.	.	8e\	8e/	.	8.cc\L	.
.	.	8f\J	8f#X/J	.	.	.
.	.	.	.	.	32b\LL	.
.	.	.	.	.	32a\JJJ	.
=24	=24	=24	=24	=24	=24	=24
!LO:N:vis=00	!	!LO:TX:a:t=P:problem=mixed beam	!	!	!	!
0r	.	8g\L	8g/L	.	8.b/L	.
.	.	8B/	8B/	.	.	.
.	.	.	.	.	32a/LL	.
.	.	.	.	.	32g/JJJ	.
.	.	8c/	8c/	.	8.a/L	.
.	.	8d/J	8d/J	.	.	.
.	.	.	.	.	32g/LL	.
.	.	.	.	.	32f/JJJ	.
=25	=25	=25	=25	=25	=25	=25
!	!	!LO:TX:a:t=P:problem=mixed beam	!	!	!	!
.	.	8G/L	8G/L	.	8g/L	.
.	.	8g\	8g/	.	8d/J	.
.	.	8G/	8G/	.	4G/	.
.	.	8A/J	8c/J	.	.	.
=26	=26	=26	=26	=26	=26	=26
.	.	4B/	8B/	.	8r	.
.	.	.	8r	.	8dd\	.
.	.	8r	8c/	.	8r	.
.	.	8c/	8r	.	8ee\	.
!	!	!LO:LB:g=original	!LO:LB:g=original	!	!LO:LB:g=original	!
=27	=27	=27	=27	=27	=27	=27
.	.	4d/	16r	.	16r	.
.	.	.	16d/LL	.	16f#X/LL	.
.	.	.	16f#X/	.	16a/	.
.	.	.	16g/JJ	.	16cc/JJ	.
.	.	8r	8a/L	.	8cc\L	.
.	.	8G/	8g/J	.	8b\J	.
=28	=28	=28	=28	=28	=28	=28
!LO:N:vis=0	!	!	!	!	!	!
1r	.	4b\	8B/	.	8r	.
.	.	.	8r	.	16dd\LL	.
.	.	.	.	.	16gg\JJ	.
.	.	8r	8c/	.	8r	.
.	.	8cc\	8r	.	16ee\LL	.
.	.	.	.	.	16gg\JJ	.
=29	=29	=29	=29	=29	=29	=29
.	.	8dd\	16r	.	16r	.
.	.	.	16d/LL	.	16f/LL	.
.	.	8r	16f#X/	.	16a/	.
.	.	.	16a/JJ	.	16cc/JJ	.
.	.	8g\	8a/L	.	8cc\L	.
.	.	8r	8g/J	.	8dd\J	.
=30	=30	=30	=30	=30	=30	=30
!	!	!LO:TX:a:t=1	!LO:TX:a:t=1	!	!	!
2r;	.	2r;	2r	.	2r;	.
=31	=31	=31	=31	=31	=31	=31
8r	.	16r	16f#X/LL	.	16ee\LL	.
.	.	16r	16f#/	.	16ee\	.
16D\LL	.	16d\LL	16cc/	.	16cc\	.
16D\JJ	.	16d\JJ	16cc/JJ	.	16cc\JJ	.
16G#X\LL	.	16f#X\LL	16a/LL	.	16a/LL	.
16G#\	.	16f#\	16a/	.	16a/	.
16A\	.	16a\	16f#/	.	16f#X/	.
16A\JJ	.	16a\JJ	16f#/JJ	.	16f#/JJ	.
=32	=32	=32	=32	=32	=32	=32
16c\LL	.	16cc\LL	16d/LL	.	16d/LL	.
16c\	.	16cc\	16d/	.	16d/	.
16A\	.	16a\	16f/	.	16f/	.
16A\JJ	.	16a\JJ	16f/JJ	.	16f/JJ	.
16F#X\LL	.	16f#X\LL	16a/LL	.	16a/LL	.
16F#\	.	16f#\	16a/	.	16a/	.
16D\	.	16d\	16cc/	.	16cc/	.
16D\JJ	.	16d\JJ	16cc/JJ	.	16cc/JJ	.
=33	=33	=33	=33	=33	=33	=33
!LO:TX:a:t=P:problem=mixed beam	!	!	!	!	!	!
16G\LL	.	16g\LL	16b/LL	.	16b/LL	.
16G\	.	16g\	16b/	.	16b/	.
16BB/	.	16B\	16g/	.	16g/	.
16BB/JJ	.	16B\JJ	16g/JJ	.	16g/JJ	.
!	!	!	!	!	!LO:LB:g=original	!
16C/LL	.	16c\LL	16e/LL	.	16e/LL	.
16C/	.	16c\	16e/	.	16e/	.
16D/	.	16d\	16f/	.	16f#X/	.
16D/JJ	.	16d\JJ	16f/JJ	.	16f#/JJ	.
!LO:LB:g=original	!	!	!	!	!	!
=34	=34	=34	=34	=34	=34	=34
8G\L	.	8g\L	8g/L	.	8g/L	.
8D\J	.	8d\J	8d/J	.	8d/J	.
4GG/	.	4G/	4G/	.	4G/	.
!	!	!	!LO:LB:g=original	!	!	!
=35	=35	=35	=35	=35	=35	=35
*	*	*tremolo	*	*	*	*
!LO:TX:a:t=4	!	!	!LO:SIC:s=8f#:v	!LO:DY:a	!	!LO:DY:a
!LO:N:vis=00	!	!	!	!	!	!
0r	.	16d\LL	(8f/L	f	(8f#X/L	f
.	.	16d\	.	.	.	.
.	.	16d\	8a/)	.	8a/)	.
.	.	16d\	.	.	.	.
!	!	!	!	!LO:DY:a	!	!LO:DY:a
.	.	16d\	(8d/	p	(8d/	p
.	.	16d\	.	.	.	.
.	.	16d\	8f/J)	.	8aJ 8f#/)	.
.	.	16d\JJ	.	.	.	.
=36	=36	=36	=36	=36	=36	=36
!	!	!	!	!LO:DY:a	!	!
.	.	16d\LL	8g/L	f	8g/L	.
.	.	16d\	.	.	.	.
!	!	!	!	!	!	!LO:DY:a
.	.	16d\	8b/J	.	8b/J	f
.	.	16d\	.	.	.	.
!	!	!	!	!LO:DY:a	!	!
.	.	16d\	8e/L	p	8d/L	.
.	.	16d\	.	.	.	.
!	!	!	!	!	!	!LO:DY:a
.	.	16d\	8g/J	.	8g/J	p
.	.	16d\JJ	.	.	.	.
!	!	!LO:LB:g=original	!	!	!	!
=37	=37	=37	=37	=37	=37	=37
.	.	16d\LL	16a/LL	.	16a\LL	.
.	.	16d\	16b/JJ	.	16b\JJ	.
.	.	16d\	4cc/	.	4cc\	.
.	.	16d\	.	.	.	.
.	.	16d\	.	.	.	.
.	.	16d\	.	.	.	.
.	.	16d\	8b/	.	8b\	.
.	.	16d\JJ	.	.	.	.
=38	=38	=38	=38	=38	=38	=38
.	.	8f#X\L	16a\LL	.	16a\LL	.
.	.	.	16dd\	.	16dd\	.
.	.	8dd\J	16a\	.	16a\	.
!	!	!	!LO:SIC:s+8f#:v	!	!	!
.	.	.	16f\JJ	.	16f#X\JJ	.
.	.	4d\	4d/	.	4d/	.
=39	=39	=39	=39	=39	=39	=39
*	*	*	*2\right	*	*2\right	*
*	*	*	*tremolo	*	*tremolo	*
!	!LO:DY:a	!	!	!	!	!
8F#X\L	f	8f#X\L	16dd\LL	.	16dd\LL	.
.	.	.	16dd\	.	16dd\	.
8A\J	.	8a\J	16dd\	.	16dd\	.
.	.	.	16dd\	.	16dd\	.
!	!LO:DY:a	!	!	!	!	!
8D\L	p	8d\L	16dd\	.	16dd\	.
.	.	.	16dd\	.	16dd\	.
8F#X\J	.	8f#\J	16dd\	.	16dd\	.
.	.	.	16dd\JJ	.	16dd\JJ	.
=40	=40	=40	=40	=40	=40	=40
!	!LO:DY:a	!	!	!	!	!
8G\L	f	8g\L	16dd\LL	.	16dd\LL	.
.	.	.	16dd\	.	16dd\	.
8B\J	.	8b\J	16dd\	.	16dd\	.
.	.	.	16dd\	.	16dd\	.
!	!LO:DY:a	!	!	!	!	!
8D\L	p	8d\L	16dd\	.	16dd\	.
.	.	.	16dd\	.	16dd\	.
8G\J	.	8g\J	16dd\	.	16dd\	.
.	.	.	16dd\JJ	.	16dd\JJ	.
*	*	*	*Xtremolo	*	*Xtremolo	*
=41	=41	=41	=41	=41	=41	=41
(16F#X\LL	.	16f#X\LL	16a\LL	.	16a/LL	.
16G\JJ	.	16g\JJ	16b\JJ	.	16b/JJ	.
4A\	.	4a\	4cc\	.	4cc/	.
8G\	.	8g\	8b\	.	8b/	.
=42	=42	=42	=42	=42	=42	=42
8F#X\L	.	8f#X\L	16a/LL	.	16a/LL	.
.	.	.	16dd/	.	16dd/	.
8d\)	.	8dd\	16a/	.	16a/	.
.	.	.	16f#X/JJ	.	16f/JJ	.
8D\	.	8d\	4d/	.	4d/	.
8C\J	.	8c\J	.	.	.	.
=43	=43	=43	=43	=43	=43	=43
*tremolo	*	*	*rep	*	*rep	*
16BB/LL	.	16B/LL	8.gg\L	.	8.gg\L	.
16BB/	.	16B/	.	.	.	.
16BB/	.	16B/	.	.	.	.
16BB/	.	16B/	32ff#X\LL	.	32ff\LL	.
!	!	!	!	!	!LO:TX:a:t=P:problem=nuta niewidoczna	!
.	.	.	32ee\JJJ	.	32ee\JJJyy	.
!	!	!	!	!	!LO:LB:g=original	!
16BB/	.	16B/	8dd\L	.	8dd\L|	.
16BB/	.	16B/	.	.	.	.
16BB/	.	16B/	8dd#X\J	.	8dd#X\J	.
16BB/JJ	.	16B/JJ	.	.	.	.
=44	=44	=44	=44	=44	=44	=44
16C/LL	.	16c/LL	8.ee\L	.	8.ee\L	.
16C/	.	16c/	.	.	.	.
16C/	.	16c/	.	.	.	.
16C/	.	16c/	32ddn\LL	.	32dd\LL	.
.	.	.	32cc\JJJ	.	32cc\JJJ	.
16C/	.	16c/	8g/L	.	8b/L	.
16C/	.	16c/	.	.	.	.
16C/	.	16c/	8f/J	.	8a/J	.
16C/JJ	.	16c/JJ	.	.	.	.
!	!	!	!LO:LB:g=original	!	!	!
=45	=45	=45	=45	=45	=45	=45
16D/LL	.	16d/LL	8.g/L	.	8.g/L	.
16D/	.	16d/	.	.	.	.
16D/	.	16d/	.	.	.	.
16D/	.	16d/	16a/Jk	.	16a/Jk	.
*	*	*	*xrep	*	*xrep	*
16D/	.	16d/	4a/	.	4a/	.
16D/	.	16d/	.	.	.	.
16D/	.	16d/	.	.	.	.
16D/JJ	.	16d/JJ	.	.	.	.
=46	=46	=46	=46	=46	=46	=46
!LO:TX:a:t=P:problem=takty 46-48 zapisane repetycją	!	!	!LO:TX:a:t=P:problem=takty 46-48 zapisane repetycją	!	!LO:TX:a:t=P:problem=takty 46-49 zapisane repetycją	!
16BB/LL	.	16B/LL	8.gg\Lyy	.	8.gg\Lyy	.
16BB/	.	16B/	.	.	.	.
16BB/	.	16B/	.	.	.	.
16BB/	.	16B/	32ff#X\LLyy	.	32ff\LLyy	.
!	!	!	!	!	!LO:TX:a:t=P:problem=nuta niewidoczna	!
.	.	.	32ee\JJJyy	.	32ee\JJJyy	.
!	!	!	!	!	!LO:LB:g=original	!
16BB/	.	16B/	8dd\Lyy	.	8dd\Lyy|	.
16BB/	.	16B/	.	.	.	.
16BB/	.	16B/	8dd#X\Jyy	.	8dd#X\Jyy	.
16BB/JJ	.	16B/JJ	.	.	.	.
=47	=47	=47	=47	=47	=47	=47
16C/LL	.	16c/LL	8.ee\Lyy	.	8.ee\Lyy	.
16C/	.	16c/	.	.	.	.
16C/	.	16c/	.	.	.	.
16C/	.	16c/	32ddn\LLyy	.	32dd\LLyy	.
.	.	.	32cc\JJJyy	.	32cc\JJJyy	.
16C/	.	16c/	8g/Lyy	.	8b/Lyy	.
16C/	.	16c/	.	.	.	.
16C/	.	16c/	8f/Jyy	.	8a/Jyy	.
16C/JJ	.	16c/JJ	.	.	.	.
!	!	!	!LO:LB:g=original	!	!	!
=48	=48	=48	=48	=48	=48	=48
16D/LL	.	16d/LL	8.g/Lyy	.	8.g/Lyy	.
16D/	.	16d/	.	.	.	.
16D/	.	16d/	.	.	.	.
16D/	.	16d/	16a/Jkyy	.	16a/Jkyy	.
16D/	.	16d/	4a/yy	.	4a/yy	.
16D/	.	16d/	.	.	.	.
16D/	.	16d/	.	.	.	.
16D/JJ	.	16d/JJ	.	.	.	.
=49	=49	=49	=49	=49	=49	=49
8G\L	.	8g\L	8g/L	.	8g/L	.
8D\J	.	8d\J	8d/J	.	8d/J	.
4GG/	.	4G/	4G/	.	4G/	.
!LO:TX:a:t=[segno]:problem=segno na kresce taktowej	!LO:TX:a:t=[segno]:problem=segno na kresce taktowej	!	!LO:TX:a:t=[segno]:problem=segno na kresce taktowej	!	!LO:TX:a:t=[segno]:problem=segno na kresce taktowej	!
=50||	=50||	=50||	=50||	=50||	=50||	=50||
16G\LL	.	16g\LL	8.g/L	.	8.g/L	.
16G\	.	16g\	.	.	.	.
16G\	.	16g\	.	.	.	.
16G\JJ	.	16g\JJ	(32b/LL	.	32b/LL	.
.	.	.	32cc/JJJ)	.	32cc/JJJ	.
!	!	!LO:LB:g=original	!	!	!	!
16F#X\LL	.	16f#X\LL	8.dd\L	.	8.dd\L	.
16F#X\	.	16f#X\	.	.	.	.
16F#X\	.	16f#X\	.	.	.	.
16F#X\JJ	.	16f#X\JJ	(32ee\LL	.	32ee\LL	.
.	.	.	32ff#X\JJJ)	.	32ff\JJJ	.
=51	=51	=51	=51	=51	=51	=51
16E\LL	.	16e\LL	8.gg\L	.	8.gg\L	.
16E\	.	16e\	.	.	.	.
16E\	.	16e\	.	.	.	.
16E\JJ	.	16e\JJ	32ff\LL	.	32ff#X\LL	.
.	.	.	32ee\JJJ	.	32ee\JJJ	.
*Xtremolo	*	*Xtremolo	*	*	*	*
!LO:TX:a:t=P:problem=mixed beam	!	!	!	!	!LO:TX:a:t=P:problem=mixed beam	!
16BB/LL	.	16B\LL	8.dd/L	.	16dd\LL	.
16BB/	.	16B\	.	.	16g/J	.
16G\	.	16g\	.	.	8g/J	.
16G\JJ	.	16g\JJ	32g/LL	.	.	.
.	.	.	32g/JJJ	.	.	.
!LO:LB:g=original	!	!	!	!	!	!
=52	=52	=52	=52	=52	=52	=52
!	!	!	!LO:SIC:s=8f#:v	!	!	!
16F\LL	.	16f#X\LL	16f/LL	.	16f#X/LL	.
16F\	.	16f#\	16f/	.	16f#/	.
16E\	.	16e\	16e/	.	16e/	.
16E\JJ	.	16e\JJ	16e/JJ	.	16e/JJ	.
16D\LL	.	16d\LL	16d/LL	.	16d/LL	.
16D\	.	16d\	16d/	.	16d/	.
16C\	.	16c\	16c/	.	16c/	.
16C\JJ	.	16c\JJ	16c/JJ	.	16c/JJ	.
=53	=53	=53	=53	=53	=53	=53
16BB/LL	.	16B/LL	16B/LL	.	16B/LL	.
16BB/	.	16B/	16B/	.	16B/	.
16AA/	.	16A/	16A/	.	16A/	.
16AA/JJ	.	16A/JJ	16A/JJ	.	16A/JJ	.
!	!	!	!	!	!LO:LB:g=original	!
4GG/	.	4G/	4G/	.	4G/	.
=54	=54	=54	=54	=54	=54	=54
*tremolo	*	*tremolo	*	*	*	*
16A\LL	.	16a\LL	8.a/L	.	8.a\L	.
16A\	.	16a\	.	.	.	.
16A\	.	16a\	.	.	.	.
16A\JJ	.	16a\JJ	32cc/LL	.	32cc\LL	.
.	.	.	32dd/JJJ	.	32dd\JJJ	.
16G\LL	.	16g\LL	8.ee\L	.	8.ee\L	.
16G\	.	16g\	.	.	.	.
16G\	.	16g\	.	.	.	.
16G\JJ	.	16g\JJ	32ff#X\LL	.	32ff#X\LL	.
.	.	.	32gg#X\JJJ	.	32gg#X\JJJ	.
=55	=55	=55	=55	=55	=55	=55
16F\LL	.	16f\LL	8.aa\L	.	8.aa\L	.
16F\	.	16f\	.	.	.	.
16F\	.	16f\	.	.	.	.
16F\JJ	.	16f\JJ	32gg#X\LL	.	32gg#X\LL	.
.	.	.	32ff\JJJ	.	32ff\JJJ	.
*Xtremolo	*	*Xtremolo	*	*	*	*
!	!	!	!LO:LB:g=original	!	!LO:TX:a:t=P:problem=mixed beam	!
16C\LL	.	16c\LL	8.ee\L	.	16ee\LL	.
16C\	.	16c\	.	.	16a/J	.
16A\	.	16a\	.	.	8a/J	.
16A\JJ	.	16a\JJ	32b\LL	.	.	.
.	.	.	32a\JJJ	.	.	.
=56	=56	=56	=56	=56	=56	=56
*	*	*tremolo	*	*	*	*
16G#X\LL	.	16g\LL	16g#X/LL	.	16g#X/LL	.
16G#\	.	16g\	16g#/	.	16g#/	.
16F\	.	16g\	16f/	.	16f#X/	.
16F\JJ	.	16g\JJ	16f/JJ	.	16f#/JJ	.
*	*	*Xtremolo	*	*	*	*
16E\LL	.	16e\LL	16e/LL	.	16e/LL	.
16E\	.	16e\	16e/	.	16e/	.
16D\	.	16d\	16d/	.	16d/	.
16D\JJ	.	16d\JJ	16d/JJ	.	16d/JJ	.
=57	=57	=57	=57	=57	=57	=57
16C/LL	.	16c/LL	16c/LL	.	16c/LL	.
16C/	.	16c/	16c/	.	16c/	.
16BB/	.	16B/	16B/	.	16B/	.
16BB/JJ	.	16B/JJ	16B/JJ	.	16B/JJ	.
4AA/	.	4A/	4A/	.	4A/	.
=58	=58	=58	=58	=58	=58	=58
*	*	*tremolo	*tremolo	*	*	*
!LO:TX:a:t=7	!	!	!	!	!	!
!LO:N:vis=00	!	!	!	!	!	!
0r	.	8a\L	8c/L	.	32ee\LLL	.
.	.	.	.	.	32gg#X\	.
.	.	.	.	.	32aa\	.
.	.	.	.	.	32bb\JJJ	.
.	.	8a\	8c/	.	8ccc\	.
.	.	8a\	8c/	.	16ccc\LL	.
.	.	.	.	.	16aa\	.
.	.	8a\J	8c/J	.	16ff\	.
.	.	.	.	.	16ee\JJ	.
*	*	*Xtremolo	*	*	*	*
=59	=59	=59	=59	=59	=59	=59
*	*	*	*	*	*tuplet	*
!	!	!	!	!	!LO:TUP:a:problem=klamra łukowa	!
.	.	8a\L	8B/L	.	24dd#X\LL	.
.	.	.	.	.	24ee\	.
.	.	.	.	.	24ff\JJ	.
!	!	!	!	!	!LO:LB:g=original	!
.	.	8a\	8B/	.	8ee\	.
.	.	8g#X\	8B/	.	4r	.
.	.	8g#\J	8B/J	.	.	.
=60	=60	=60	=60	=60	=60	=60
*	*	*tremolo	*	*	*	*
.	.	8gn\L	8B-X/L	.	32ee\LLL	.
.	.	.	.	.	32ff\	.
.	.	.	.	.	32ggn\	.
.	.	.	.	.	32aa\JJJ	.
.	.	8gn\	8B-X/	.	8bb-X\	.
.	.	8gn\	8B-X/	.	16bb-\LL	.
.	.	.	.	.	16gg\	.
.	.	8gn\J	8B-X/J	.	16ee\	.
.	.	.	.	.	16dd\JJ	.
*	*	*Xtremolo	*	*	*	*
!	!	!LO:LB:g=original	!	!	!	!
=61	=61	=61	=61	=61	=61	=61
!	!	!	!	!	!LO:TUP:a	!
.	.	8g\L	8A/L	.	24cc#X\LL	.
.	.	.	.	.	24dd\	.
.	.	.	.	.	24ee\JJ	.
.	.	8g\	8A/	.	4dd\	.
.	.	8f\	8A/	.	.	.
.	.	8f\J	8A/J	.	8dd\	.
=62	=62	=62	=62	=62	=62	=62
*	*	*tremolo	*	*	*	*
!LO:N:vis=0	!	!	!	!	!	!
1r	.	8f#X\L	8B#X/L	.	(16aa\LL	.
.	.	.	.	.	16gg\)	.
.	.	8f#X\	8B#X/	.	16aa\|	.
.	.	.	.	.	16aa\JJ|	.
.	.	8f#X\	8B#X/	.	(16aa\LL	.
.	.	.	.	.	16gg\)	.
.	.	8f#X\J	8B#X/J	.	16aa\|	.
.	.	.	.	.	16aa\JJ|	.
=63	=63	=63	=63	=63	=63	=63
*	*	*	*	*	*Xtuplet	*
.	.	8g#X\L	8e/L	.	24gg#X\LL	.
.	.	.	.	.	24aa\	.
.	.	.	.	.	24bb\JJ	.
.	.	8g#X\	8e/	.	4ee\	.
.	.	8g#X\	8e/	.	.	.
.	.	8g#X\J	8e/J	.	8ee\	.
=64	=64	=64	=64	=64	=64	=64
2r	.	16f#X\LL	16d#X/LL	.	24a/LL	.
.	.	.	.	.	24cc/	.
.	.	16f#X\	16d#X/	.	.	.
.	.	.	.	.	24b/JJ	.
.	.	16f#X\	16d#X/	.	16a/LL	.
.	.	16f#X\	16d#X/	.	16a/JJ	.
.	.	16f#X\	16d#X/	.	24a/LL	.
.	.	.	.	.	24cc/	.
.	.	16f#X\	16d#X/	.	.	.
.	.	.	.	.	24b/JJ	.
.	.	16f#X\	16d#X/	.	16a/LL	.
.	.	16f#X\JJ	16d#X/JJ	.	16a/JJ	.
!	!	!	!	!	!LO:LB:g=original	!
=65	=65	=65	=65	=65	=65	=65
*tremolo	*	*	*	*	*	*
16E\LL	.	16g#X\LL	16e/LL	.	24g#X/LL	.
.	.	.	.	.	24b/	.
16E\	.	16g#X\	16e/	.	.	.
.	.	.	.	.	24ee/JJ	.
16E\	.	16g#X\	16e/	.	8e/	.
16E\JJ	.	16g#X\JJ	16e/JJ	.	.	.
*	*	*Xtremolo	*Xtremolo	*	*	*
4E\	.	4g#\	4e/	.	4r	.
=66	=66	=66	=66	=66	=66	=66
*	*	*tremolo	*	*	*	*
16D/LL	.	16c\LL	8.ff\L	.	8.ff\L	.
16D/	.	16c\	.	.	.	.
16D/	.	16c\	.	.	.	.
16D/	.	16c\	32ee\LL	.	32ee\LL	.
.	.	.	32dd\JJJ	.	32dd\JJJ	.
16D/	.	16c\	8cc\L	.	8cc\L	.
16D/	.	16c\	.	.	.	.
16D/	.	16c\	8b\J	.	8b\J	.
16D/JJ	.	16c\JJ	.	.	.	.
=67	=67	=67	=67	=67	=67	=67
16C/LL	.	16c/LL	8.ee\L	.	8.ee\L	.
16C/	.	16c/	.	.	.	.
16C/	.	16c/	.	.	.	.
16C/	.	16c/	32dd\LL	.	32dd\LL	.
.	.	.	32cc\JJJ	.	32cc\JJJ	.
16C/	.	16c/	8b\L	.	8b\L	.
16C/	.	16c/	.	.	.	.
16C/	.	16c/	8a\J	.	8a\J	.
16C/JJ	.	16c/JJ	.	.	.	.
!	!	!	!LO:LB:g=original	!	!	!
=68	=68	=68	=68	=68	=68	=68
!	!	!	!	!	!LO:TX:a:t=P:problem=mixed beam	!
16D/LL	.	16d\LL	8.f/L	.	8.d/L	.
16D/	.	16d\	.	.	.	.
16D/	.	16d\	.	.	.	.
16D/JJ	.	16d\JJ	32dd/LL	.	32dd\LL	.
.	.	.	32b/JJJ	.	32b\JJJ	.
16E/LL	.	16e\LL	4g#X/	.	4g#X/	.
16E/	.	16e\	.	.	.	.
16E/	.	16e\	.	.	.	.
16E/JJ	.	16e\JJ	.	.	.	.
*Xtremolo	*	*Xtremolo	*	*	*	*
!LO:LB:g=original	!	!	!	!	!	!
=69	=69	=69	=69	=69	=69	=69
16A\LL	.	16a\LL	8a/L	.	8a/L	.
16A\	.	16a\	.	.	.	.
16E\	.	16e\	8e/J	.	8e/J	.
16E\JJ	.	16e\JJ	.	.	.	.
4AA/	.	4A/	4A/	.	4A/	.
=70	=70	=70	=70	=70	=70	=70
*	*	*	*tremolo	*	*tremolo	*
!LO:TX:a:t=3	!	!	!	!	!	!
!LO:N:vis=0	!	!	!	!	!	!
1r	.	8g#X\L	16e/LL	.	16e/LL	.
.	.	.	16e/	.	16e/	.
.	.	8b\J	16e/	.	16e/	.
.	.	.	16e/	.	16e/	.
.	.	8e\L	16e/	.	16e/	.
.	.	.	16e/	.	16e/	.
.	.	8g#\J	16e/	.	16e/	.
.	.	.	16e/JJ	.	16e/JJ	.
=71	=71	=71	=71	=71	=71	=71
.	.	8a\L	16e/LL	.	16e/LL	.
.	.	.	16e/	.	16e/	.
.	.	8cc\J	16e/	.	16e/	.
.	.	.	16e/	.	16e/	.
.	.	8e\L	16e/	.	16e/	.
.	.	.	16e/	.	16e/	.
.	.	8a\J	16e/	.	16e/	.
.	.	.	16e/JJ	.	16e/JJ	.
*	*	*	*Xtremolo	*	*	*
=72	=72	=72	=72	=72	=72	=72
2r	.	16g#X\LL	16b\LL	.	16e/LL	.
.	.	16a\JJ	16cc\JJ	.	16e/	.
.	.	4b\	4dd\	.	16e/	.
.	.	.	.	.	16e/	.
.	.	.	.	.	16e/	.
.	.	.	.	.	16e/	.
.	.	8b\	8cc\	.	16e/	.
.	.	.	.	.	16e/JJ	.
*	*	*	*	*	*Xtremolo	*
=73	=73	=73	=73	=73	=73	=73
*tremolo	*	*	*	*	*	*
!	!	!	!	!	!LO:TX:a:t=P:problem=mixed beam	!
16E\LL	.	16g#X\LL	16b\LL	.	16e/LL	.
16E\	.	16e\	16dd\	.	16ee\	.
16E\	.	16e\	16b\	.	16b\	.
16E\JJ	.	16e\JJ	16g#X\JJ	.	16g#X\JJ	.
4E\	.	4e\	4e/	.	4e/	.
!	!	!LO:LB:g=original	!	!	!	!
=74	=74	=74	=74	=74	=74	=74
*	*	*tremolo	*	*	*	*
!LO:TX:a:t=3	!	!	!	!	!	!
!LO:N:vis=0	!	!	!	!	!	!
1r	.	16e\LL	(8g#X/L	.	(8g/L	.
.	.	16e\	.	.	.	.
.	.	16e\	8b/J)	.	8b/J)	.
.	.	16e\	.	.	.	.
!	!	!	!	!	!LO:LB:g=original	!
.	.	16e\	(8e/L	.	(8d/L	.
.	.	16e\	.	.	.	.
.	.	16e\	8g#/J)	.	8g/J)	.
.	.	16e\JJ	.	.	.	.
=75	=75	=75	=75	=75	=75	=75
.	.	16e\LL	8a\L	.	(8a/L	.
.	.	16e\	.	.	.	.
.	.	16e\	8cc\J	.	8cc/J)	.
.	.	16e\	.	.	.	.
.	.	16e\	8e/L	.	(8d/L	.
.	.	16e\	.	.	.	.
.	.	16e\	8a/J	.	8a/J)	.
.	.	16e\JJ	.	.	.	.
=76	=76	=76	=76	=76	=76	=76
2r	.	16e\LL	16g#X/LL	.	16b\LL	.
.	.	16e\	16a/JJ	.	16cc\JJ	.
.	.	16e\	4b/	.	4dd\	.
.	.	16e\	.	.	.	.
.	.	16e\	.	.	.	.
.	.	16e\	.	.	.	.
.	.	16e\	8a/	.	8cc\	.
.	.	16e\JJ	.	.	.	.
=77	=77	=77	=77	=77	=77	=77
16E\LL	.	16e\LL	16g#X\LL	.	16b\LL	.
16E\	.	16e\	16ee\	.	16ee\	.
16E\	.	16e\	16b\	.	16b\	.
16E\JJ	.	16e\	16g#\JJ	.	16g\JJ	.
4E\	.	16e\	4e/	.	4e/	.
.	.	16e\	.	.	.	.
.	.	16e\	.	.	.	.
.	.	16e\JJ	.	.	.	.
!	!	!	!LO:LB:g=original	!	!	!
=78	=78	=78	=78	=78	=78	=78
16D\LL	.	16b\LL	4ff\	.	4ff\	.
16D\	.	16b\	.	.	.	.
16D\	.	16b\	.	.	.	.
16D\	.	16b\JJ	.	.	.	.
16D\	.	16b\LL	4g#X/	.	4g#X/	.
16D\	.	16b\	.	.	.	.
16D\	.	16b\	.	.	.	.
16D\JJ	.	16b\JJ	.	.	.	.
=79	=79	=79	=79	=79	=79	=79
16C/LL	.	16a\LL	16a\LL	.	16a\LL	.
16C/	.	16a\	16b\	.	16b\	.
16C/	.	16a\	16cc\	.	16cc\	.
16C/	.	16a\	16dd\JJ	.	16dd\JJ	.
16C/	.	16a\	8ee\L	.	8cc\L	.
16C/	.	16a\	.	.	.	.
16C/	.	16a\	8aa\J	.	8aa\J	.
16C/JJ	.	16a\JJ	.	.	.	.
=80	=80	=80	=80	=80	=80	=80
16D/LL	.	16a\LL	16ff\LL	.	16ff\LL	.
16D/	.	16a\	16ff\	.	16ff\	.
16D/	.	16a\	16dd\	.	16dd\	.
16D/JJ	.	16a\JJ	16dd\JJ	.	16dd\JJ	.
16E/LL	.	16g\LL	16cc\LL	.	16cc\LL	.
16E/	.	16g\	16cc\	.	16cc\	.
16E/	.	16g\	16b\	.	16b\	.
16E/JJ	.	16g\JJ	16b\JJ	.	16b\JJ	.
*	*	*Xtremolo	*	*	*	*
=81	=81	=81	=81	=81	=81	=81
!LO:TX:a:t=P:problem=mixed beam	!	!	!	!	!	!
8AA/L	.	8a\L	4a/	.	4a/	.
8A\J	.	8a\J	.	.	.	.
16G\LL	.	16g\LL	4r	.	4r	.
16F\	.	16f\	.	.	.	.
16E\	.	16e\	.	.	.	.
16D\JJ	.	16d\JJ	.	.	.	.
=82	=82	=82	=82	=82	=82	=82
4C/	.	4c/	8r	.	8r	.
.	.	.	8cc\L	.	8cc\L	.
4r	.	4r	8g\	.	8g\	.
.	.	.	8a\J	.	8a\J	.
=83	=83	=83	=83	=83	=83	=83
8r	.	8r	2b-X\	.	2b\	.
8A\L	.	8a\L	.	.	.	.
8D\	.	8d\	.	.	.	.
8E\J	.	8e\J	.	.	.	.
!	!	!	!	!	!LO:LB:g=original	!
=84	=84	=84	=84	=84	=84	=84
4F\	.	4f\	8r	.	8r	.
!	!	!	!	!	!LO:TX:a:t=P:problem=mixed beam	!
.	.	.	8dd\L	.	8dd\L	.
8r	.	4r	8a\	.	8a/	.
8r	.	.	8bn\J	.	8b/J	.
=85	=85	=85	=85	=85	=85	=85
8r	.	8r	2cc\	.	2cc\	.
8A\L	.	8a\L	.	.	.	.
8E\	.	8e\	.	.	.	.
8F#X\J	.	8f#X\J	.	.	.	.
=86	=86	=86	=86	=86	=86	=86
4G\	.	4g\	8r	.	8r	.
.	.	.	8gg\L	.	8gg\L	.
4r	.	4r	8dd\	.	8dd\	.
.	.	.	8ee\J	.	8ee\J	.
=87	=87	=87	=87	=87	=87	=87
8r	.	8r	2ff\	.	2ff\	.
!LO:LB:g=original	!	!	!	!	!	!
8d\L	.	8dd\L	.	.	.	.
8A\	.	8a\	.	.	.	.
8B\J	.	8b\J	.	.	.	.
=88	=88	=88	=88	=88	=88	=88
4c\	.	4cc\	16ee\LL	.	16ee\LL	.
.	.	.	16gg\	.	16gg\	.
.	.	.	16ff\	.	16ff\	.
.	.	.	16ee\JJ	.	16ee\JJ	.
4F#X\	.	4f#X\	8aa\L	.	8aa\L	.
.	.	.	8ee\J	.	8cc\J	.
!	!	!LO:LB:g=original	!LO:LB:g=original	!	!	!
=89	=89	=89	=89	=89	=89	=89
!LO:TX:a:t=P:problem=mixed beam	!	!LO:TX:a:t=P:problem=mixed beam	!	!	!	!
8G\L	.	8g\L	16b/LL	.	16b/LL	.
.	.	.	16a/J	.	16a/J	.
8GG/	.	8G/	8g/J	.	8g#X/J	.
8G\	.	8g\	4r	.	4r	.
8F\J	.	8e\J	.	.	.	.
=90	=90	=90	=90	=90	=90	=90
*	*	*tremolo	*	*	*	*
8F\L	.	8fn\L	16aa\LL	.	16aa\LL	.
.	.	.	16cc#X\	.	16cc#X\	.
8F\	.	8fn\	16dd\	.	16dd\	.
.	.	.	16ee\JJ	.	16ee\JJ	.
8F\	.	8fn\	16ff\LL	.	16ff\LL	.
.	.	.	16gg\	.	16gg\	.
8F\J	.	8fn\J	16aa\	.	16aa\	.
.	.	.	16ff\JJ	.	16ff\JJ	.
=91	=91	=91	=91	=91	=91	=91
8E\L	.	8e\L	16gg\LL	.	16gg\LL	.
.	.	.	16b\	.	16b\	.
8E\	.	8e\	16ccn\	.	16cc\	.
.	.	.	16dd\JJ	.	16dd\JJ	.
8E\	.	8e\	16ee\LL	.	16ee\LL	.
.	.	.	16ff\	.	16ff\	.
8E\J	.	8e\J	16gg\	.	16gg\	.
.	.	.	16ff\JJ	.	16ee\JJ	.
*Xtremolo	*	*Xtremolo	*	*	*	*
=92	=92	=92	=92	=92	=92	=92
!LO:TX:a:t=P:problem=mixed beam	!	!LO:TX:a:t=P:problem=mixed beam	!	!	!	!
8D\L	.	8d\L	16ff\LL	.	16ff\LL	.
.	.	.	16ee\	.	16ee\	.
8D\	.	8d\	16dd\	.	16dd\	.
.	.	.	16cc\JJ	.	16cc\JJ	.
8G\	.	8a\	16b/LL	.	16b/LL	.
.	.	.	16a/	.	16a/	.
8GG/J	.	8G/J	16g/	.	16g/	.
.	.	.	16f/JJ	.	16f/JJ	.
!	!	!	!	!	!LO:PB:g=original	!
=93	=93	=93	=93	=93	=93	=93
8C/L	.	8c\L	16e/LL	.	16e/LL	.
.	.	.	16a/	.	16cc/	.
8C/	.	8c\	16e/	.	16e/	.
.	.	.	16a/JJ	.	16cc/JJ	.
8D/	.	8d\	16f/LL	.	16f/LL	.
.	.	.	16a/	.	16cc/	.
8D/J	.	8d\J	16f/	.	16f/	.
.	.	.	16a/JJ	.	16cc/JJ	.
=94	=94	=94	=94	=94	=94	=94
8E\L	.	8e\L	16g/LL	.	16g/LL	.
.	.	.	16cc/	.	16cc/	.
8E\	.	8e\	16g/	.	16g/	.
.	.	.	16cc/JJ	.	16cc/JJ	.
8F\	.	8f\	16a/LL	.	16a/LL	.
.	.	.	16cc/	.	16cc/	.
8F\J	.	8f\J	16a/	.	16a/	.
.	.	.	16cc/JJ	.	16cc/JJ	.
=95	=95	=95	=95	=95	=95	=95
!	!	!	!LO:TX:a:t=P:problem=takty 95-96 zapisane repetycją	!	!LO:TX:a:t=P:problem=takty 95-96 zapisane repetycją	!
4C/	.	4c\	16e/LLyy	.	16e/LLyy	.
.	.	.	16a/yy	.	16cc/yy	.
.	.	.	16e/yy	.	16e/yy	.
.	.	.	16a/JJyy	.	16cc/JJyy	.
4D/	.	4d\	16f/LLyy	.	16f/LLyy	.
.	.	.	16a/yy	.	16cc/yy	.
.	.	.	16f/yy	.	16f/yy	.
.	.	.	16a/JJyy	.	16cc/JJyy	.
=96	=96	=96	=96	=96	=96	=96
4E\	.	4e\	16g/LLyy	.	16g/LLyy	.
.	.	.	16cc/yy	.	16cc/yy	.
.	.	.	16g/yy	.	16g/yy	.
.	.	.	16cc/JJyy	.	16cc/JJyy	.
4F\	.	4f\	16a/LLyy	.	16a/LLyy	.
.	.	.	16cc/yy	.	16cc/yy	.
.	.	.	16a/yy	.	16a/yy	.
.	.	.	16cc/JJyy	.	16cc/JJyy	.
!	!	!	!LO:LB:g=original	!	!	!
=97	=97	=97	=97	=97	=97	=97
8r	.	8r	16f#X/LL	.	16f#X/LL	.
.	.	.	16cc/	.	16cc/	.
8D\L	.	8d\L	16f#/	.	16f#/	.
.	.	.	16cc/JJ	.	16cc/JJ	.
8F#X\	.	8f#X\	16f#/LL	.	16f#/LL	.
.	.	.	16cc/	.	16cc/	.
8A\J	.	8a\J	16f#/	.	16f#/	.
.	.	.	16cc/JJ	.	16cc/JJ	.
=98	=98	=98	=98	=98	=98	=98
8G\L	.	8g\L	16b/LL	.	16b/LL	.
.	.	.	16g/	.	16g/	.
8Fn\	.	8f#X\	16a/	.	16a/	.
.	.	.	16b/JJ	.	16b/JJ	.
8E\	.	8e\	16cc\LL	.	16cc\LL	.
.	.	.	16dd\	.	16dd\	.
8D\J	.	8d\J	16ee\	.	16ee\	.
.	.	.	16ff\JJ	.	16ff\JJ	.
=99	=99	=99	=99	=99	=99	=99
!LO:TX:a:t=P:problem=mixed beam	!	!LO:TX:a:t=P:problem=mixed beam	!	!	!	!
8E\L	.	8e\L	8gg\L	.	8gg\L	.
8F\	.	8f\	8cc\J	.	8cc\J	.
8G\	.	8g\	4dd\	.	4dd\	.
8GG/J	.	8G/J	.	.	.	.
!LO:LB:g=original	!	!	!	!	!	!
=100	=100	=100	=100	=100	=100	=100
8C/L	.	8c/L	4cc\	.	4cc\	.
8GG/J	.	8G/J	.	.	.	.
4CC/	.	4C/	4r	.	4r	.
=101	=101	=101	=101	=101	=101	=101
*tremolo	*	*	*	*	*	*
!	!	!LO:TX:a:t=P:problem=mixed beam	!	!	!	!
16GG/LL	.	16g\LL	(8b\L	.	(8b\L	.
16GG/	.	16G/	.	.	.	.
16GG/	.	16G/	8dd\J)	.	8dd\J)	.
16GG/	.	16G/JJ	.	.	.	.
!	!	!LO:LB:g=original	!	!	!	!
*	*	*tremolo	*	*	*	*
16GG/	.	16G/LL	(8g/L	.	(8g\L	.
16GG/	.	16G/	.	.	.	.
16GG/	.	16G/	8b/J)	.	8b\J)	.
16GG/JJ	.	16G/JJ	.	.	.	.
=102	=102	=102	=102	=102	=102	=102
16GG/LL	.	16G/LL	(8cc\L	.	(8cc\L	.
16GG/	.	16G/	.	.	.	.
16GG/	.	16G/	8ee\J)	.	8ee\J)	.
16GG/	.	16G/	.	.	.	.
!	!	!	!	!	!LO:LB:g=original	!
16GG/	.	16G/	(8g/L	.	(8g\L	.
16GG/	.	16G/	.	.	.	.
16GG/	.	16G/	8cc/J)	.	8cc\J)	.
16GG/JJ	.	16G/JJ	.	.	.	.
=103	=103	=103	=103	=103	=103	=103
16GG/LL	.	16G/LL	16b\LL	.	16dd\LL	.
16GG/	.	16G/	16cc\JJ	.	16ee\JJ	.
16GG/	.	16G/	4dd\	.	4ff\	.
16GG/	.	16G/	.	.	.	.
16GG/	.	16G/	.	.	.	.
16GG/	.	16G/	.	.	.	.
16GG/	.	16G/	8cc\	.	8ee\	.
16GG/JJ	.	16G/JJ	.	.	.	.
=104	=104	=104	=104	=104	=104	=104
!LO:TX:a:t=P:problem=mixed beam	!	!LO:TX:a:t=P:problem=mixed beam	!	!	!	!
8GG/L	.	8G/L	16b\LL	.	16dd\LL	.
.	.	.	16gg\	.	16gg\	.
8G\J	.	8g\J	16dd\	.	16dd\	.
.	.	.	16b\JJ	.	16b\JJ	.
4GG/	.	4G/	4g/	.	4g/	.
=105	=105	=105	=105	=105	=105	=105
*	*	*	*tremolo	*	*tremolo	*
8BB/L	.	(8B\L	16g/LL	.	16g/LL	.
.	.	.	16g/	.	16g/	.
8D/J	.	8d\J)	16g/	.	16g/	.
.	.	.	16g/	.	16g/	.
8GG/L	.	(8G/L	16g/	.	16g/	.
.	.	.	16g/	.	16g/	.
8D/J	.	8B/J)	16g/	.	16g/	.
.	.	.	16g/JJ	.	16g/JJ	.
=106	=106	=106	=106	=106	=106	=106
8C\L	.	8c\L	16g/LL	.	16g/LL	.
.	.	.	16g/	.	16g/	.
8E\J	.	8e\J	16g/	.	16g/	.
.	.	.	16g/	.	16g/	.
8GG/L	.	8G/L	16g/	.	16g/	.
.	.	.	16g/	.	16g/	.
8C/J	.	8c/J	16g/	.	16g/	.
.	.	.	16g/JJ	.	16g/JJ	.
*	*	*	*Xtremolo	*	*Xtremolo	*
!	!	!	!LO:LB:g=original	!	!	!
=107	=107	=107	=107	=107	=107	=107
16BB/LL	.	16B/LL	16d/LL	.	16d/LL	.
16C/JJ	.	16c/JJ	16e/JJ	.	16e/JJ	.
4D/	.	4d/	4f/	.	4f/	.
8C/	.	8c/	8e/	.	8e/	.
=108	=108	=108	=108	=108	=108	=108
!LO:TX:a:t=P:problem=mixed beam	!	!LO:TX:a:t=P:problem=mixed beam	!	!	!	!
8BB/L	.	8B/L	16d/LL	.	16d/LL	.
.	.	.	16g/	.	16g/	.
8G\J	.	8g\J	16d/	.	16d/	.
.	.	.	16B/JJ	.	16B/JJ	.
4GG/	.	4G/	4G/	.	4G/	.
=109	=109	=109	=109	=109	=109	=109
16E\LL	.	8e\L	8.ccc\L	.	8.ccc\L	.
16E\	.	.	.	.	.	.
16E\	.	8e\	.	.	.	.
16E\	.	.	32bb\LL	.	32bb\LL	.
.	.	.	32aa\JJJ	.	32aa\JJJ	.
16E\	.	8e\	8gg\L	.	8bb\L	.
16E\	.	.	.	.	.	.
16E\	.	8e\J	8gg#X\J	.	8bb#X\J	.
16E\JJ	.	.	.	.	.	.
=110	=110	=110	=110	=110	=110	=110
16F\LL	.	8e\L	8.aa\L	.	8.aa\L	.
16F\	.	.	.	.	.	.
16F\	.	8e\	.	.	.	.
16F\	.	.	32gg\LL	.	32gg\LL	.
.	.	.	32ff\JJJ	.	32ffn\JJJ	.
16F\	.	8e\	8ee\L	.	8ee\L	.
16F\	.	.	.	.	.	.
16F\	.	8e\J	8dd\J	.	8dd\J	.
16F\JJ	.	.	.	.	.	.
=111	=111	=111	=111	=111	=111	=111
!LO:TX:a:t=P:problem=brak taktu	!	!	!	!	!	!
2ryy	.	16f\LL	8.cc\L	.	8.cc\L	.
.	.	16f\	.	.	.	.
.	.	16f\	.	.	.	.
.	.	16f\	16dd\Jk	.	16dd\Jk	.
.	.	16f\	4dd\	.	4dd\	.
.	.	16f\	.	.	.	.
.	.	16f\	.	.	.	.
.	.	16f\JJ	.	.	.	.
!	!	!	!	!	!LO:LB:g=original	!
=112	=112	=112	=112	=112	=112	=112
!	!	!	!	!	!LO:TX:a:t=P:problem=brak taktów 112-121	!
16G\LL	.	16g\LL	8cc\L	.	2ryy	.
16G\	.	16g\	.	.	.	.
16G\	.	16g\	8g\J	.	.	.
16G\JJ	.	16g\JJ	.	.	.	.
16GG/LL	.	16G/LL	4c/	.	.	.
16GG/	.	16G/	.	.	.	.
16GG/	.	16G/	.	.	.	.
16GG/JJ	.	16G/JJ	.	.	.	.
*Xtremolo	*	*Xtremolo	*	*	*	*
=113	=113	=113	=113	=113	=113	=113
!	!	!	!LO:TX:a:t=P:problem=brak taktu	!	!	!
16C/LL	.	16c/LL	2ryy	.	2ryy	.
16C/	.	16c/	.	.	.	.
16GG/	.	16G/	.	.	.	.
16GG/JJ	.	16G/JJ	.	.	.	.
4CC/	.	4C/	.	.	.	.
!LO:LB:g=original	!	!	!	!	!	!
=114	=114	=114	=114	=114	=114	=114
!LO:TX:a:t=4	!	!	!	!	!	!
!LO:N:vis=00	!	!	!	!	!	!
0r	.	8e\	8e/	.	2ryy	.
.	.	8r	8r	.	.	.
.	.	8f\	8f/	.	.	.
.	.	8r	8r	.	.	.
=115	=115	=115	=115	=115	=115	=115
.	.	8g\	16r	.	2ryy	.
.	.	.	(16g\LL	.	.	.
!	!	!LO:LB:g=original	!	!	!	!
.	.	8r	16b\	.	.	.
.	.	.	16dd\JJ)	.	.	.
.	.	8c\	8dd\L	.	.	.
.	.	8r	8cc\J	.	.	.
=116	=116	=116	=116	=116	=116	=116
!	!	!LO:TX:a:t=P:problem=takty 116-117 zapisane repetycją	!LO:TX:a:t=P:problem=takty 116-117 zapisane repetycją	!	!	!
.	.	8e\yy	8e/yy	.	2ryy	.
.	.	8ryy	8ryy	.	.	.
.	.	8f\yy	8f/yy	.	.	.
.	.	8ryy	8ryy	.	.	.
=117	=117	=117	=117	=117	=117	=117
.	.	8g\yy	16ryy	.	2ryy	.
.	.	.	(16g\LLyy	.	.	.
!	!	!LO:LB:g=original	!	!	!	!
.	.	8ryy	16b\yy	.	.	.
.	.	.	16dd\JJ)yy	.	.	.
.	.	8c\yy	8dd\Lyy	.	.	.
.	.	8ryy	8cc\Jyy	.	.	.
=118	=118	=118	=118	=118	=118	=118
!	!	!LO:TX:a:t=1	!LO:TX:a:t=1	!	!	!
2r;	.	2r	2r	.	2ryy	.
=119	=119	=119	=119	=119	=119	=119
*tremolo	*	*tremolo	*	*	*	*
16E\LL	.	16e\LL	8.ccc\L	.	2ryy	.
16E\	.	16e\	.	.	.	.
16E\	.	16e\	.	.	.	.
16E\JJ	.	16e\	32bb\LL	.	.	.
.	.	.	32aa\JJJ	.	.	.
16F\LL	.	16e\	8gg\L	.	.	.
16F\	.	16e\	.	.	.	.
16F\	.	16e\	8gg#X\J	.	.	.
16F\JJ	.	16e\JJ	.	.	.	.
!	!	!	!LO:LB:g=original	!	!	!
=120	=120	=120	=120	=120	=120	=120
16F\LL	.	16f\LL	8.aa\L	.	2ryy	.
16F\	.	16f\	.	.	.	.
16F\	.	16f\	.	.	.	.
16F\	.	16f\	32gg\LL	.	.	.
.	.	.	32ff\JJJ	.	.	.
16F\	.	16f\	8ee\L	.	.	.
16F\	.	16f\	.	.	.	.
16F\	.	16f\	8dd\J	.	.	.
16F\JJ	.	16f\JJ	.	.	.	.
=121	=121	=121	=121	=121	=121	=121
16G\LL	.	16g\LL	8.dd\L	.	2ryy	.
16G\	.	16g\	.	.	.	.
16G\	.	16g\	.	.	.	.
16G\	.	16g\	16ee\Jk	.	.	.
16G\	.	16g\	4ee\	.	.	.
16G\	.	16g\	.	.	.	.
16G\	.	16g\	.	.	.	.
16G\JJ	.	16g\JJ	.	.	.	.
=122	=122	=122	=122	=122	=122	=122
!	!	!LO:N:vis=16	!	!	!	!
16A\LL	.	16g\LL	(4cc\	.	(4cc\	.
16A\	.	16cc\	.	.	.	.
16A\	.	16cc\	.	.	.	.
16A\	.	16cc\JJ	.	.	.	.
16A\	.	16cc\LL	28cc\LL	.	20cc\LL	.
.	.	.	28dd\	.	.	.
.	.	.	.	.	20dd\	.
16A\	.	16cc\	.	.	.	.
.	.	.	28ee\	.	.	.
.	.	.	.	.	20ee\	.
.	.	.	28ff\	.	.	.
16A\	.	16cc\	.	.	.	.
.	.	.	28gg\	.	.	.
.	.	.	.	.	20ff\	.
.	.	.	28aa\	.	.	.
16A\JJ	.	16cc\JJ	.	.	.	.
.	.	.	.	.	20gg\JJ)	.
.	.	.	28bb\JJ)	.	.	.
=123	=123	=123	=123	=123	=123	=123
16E\LL	.	16e\LL	8.ccc\L	.	8.ccc\L	.
16E\	.	16e\	.	.	.	.
16E\	.	16e\	.	.	.	.
16E\	.	16e\	32bb\LL	.	32bb\LL	.
.	.	.	32aa\JJJ	.	32aa\JJJ	.
16E\	.	16e\	8gg\L	.	8gg\L	.
16E\	.	16e\	.	.	.	.
16E\	.	16e\	8gg#X\J	.	8ggn\J	.
16E\JJ	.	16e\JJ	.	.	.	.
=124	=124	=124	=124	=124	=124	=124
16F\LL	.	16f\LL	8.aa\L	.	8.aa\L	.
16F\	.	16f\	.	.	.	.
16F\	.	16f\	.	.	.	.
16F\	.	16f\	32gg\LL	.	32gg\LL	.
.	.	.	32ff\JJJ	.	32ff\JJJ	.
16F\	.	16f\	8ee\L	.	8ee\L	.
16F\	.	16f\	.	.	.	.
16F\	.	16f\	8dd\J	.	8dd\J	.
16F\JJ	.	16f\JJ	.	.	.	.
=125	=125	=125	=125	=125	=125	=125
16G\LL	.	16g\LL	8.cc\L	.	8.cc\L	.
16G\	.	16g\	.	.	.	.
16G\	.	16g\	.	.	.	.
16G\JJ	.	16g\JJ	16dd\Jk	.	16dd\Jk	.
16GG/LL	.	16G/LL	4dd\	.	4dd\	.
16GG/	.	16G/	.	.	.	.
16GG/	.	16G/	.	.	.	.
16GG/JJ	.	16G/JJ	.	.	.	.
*Xtremolo	*	*Xtremolo	*	*	*	*
=126	=126	=126	=126	=126	=126	=126
16C/LL	.	16c/LL	8cc\L	.	8cc\L	.
16C/	.	16c/	.	.	.	.
16GG/	.	16G/	8g\J	.	8g\J	.
16GG/JJ	.	16G/JJ	.	.	.	.
4CC/	.	4C/	4c/	.	4c/	.
!LO:TX:a:t=[segno]:problem=znak segno na kresce taktowej	!	!LO:TX:a:t=[segno]:problem=znak segno na kresce taktowej	!LO:TX:a:t=[segno]:problem=znak segno na kresce taktowej	!	!LO:TX:a:t=[segno]:problem=znak segno na kresce taktowej	!
==	==	==	==	==	==	==
*-	*-	*-	*-	*-	*-	*-
!!!system-decoration: [s1,s2,s3,s4]
!!!RDF**kern: | = vertical stroke
!!!ENC: Marta Lawrence
!!!END: 2020-11-15
!!!ENC: Berenika Jozajtis
!!!END: 2020-06-06
